build/svg/cmd/lc_changecasetolower.svg

<?xml version="1.0" encoding="UTF-8" standalone="no"?>
<svg
   xmlns:dc="http://purl.org/dc/elements/1.1/"
   xmlns:cc="http://creativecommons.org/ns#"
   xmlns:rdf="http://www.w3.org/1999/02/22-rdf-syntax-ns#"
   xmlns:svg="http://www.w3.org/2000/svg"
   xmlns="http://www.w3.org/2000/svg"
   xmlns:sodipodi="http://sodipodi.sourceforge.net/DTD/sodipodi-0.dtd"
   xmlns:inkscape="http://www.inkscape.org/namespaces/inkscape"
   viewBox="0 0 24 24"
   version="1.1"
   id="svg6"
   sodipodi:docname="lc_changecasetolower.svg"
   inkscape:version="0.92.5 (2060ec1f9f, 2020-04-08)"
   inkscape:export-filename="/home/jupiter007/Libreoffice yaru theme fullcolor/build/cmd/lc_changecasetolower.png"
   inkscape:export-xdpi="96"
   inkscape:export-ydpi="96">
  <metadata
     id="metadata12">
    <rdf:RDF>
      <cc:Work
         rdf:about="">
        <dc:format>image/svg+xml</dc:format>
        <dc:type
           rdf:resource="http://purl.org/dc/dcmitype/StillImage" />
      </cc:Work>
    </rdf:RDF>
  </metadata>
  <defs
     id="defs10" />
  <sodipodi:namedview
     pagecolor="#ffffff"
     bordercolor="#666666"
     borderopacity="1"
     objecttolerance="10"
     gridtolerance="10"
     guidetolerance="10"
     inkscape:pageopacity="0"
     inkscape:pageshadow="2"
     inkscape:window-width="1920"
     inkscape:window-height="1011"
     id="namedview8"
     showgrid="true"
     inkscape:zoom="19.666667"
     inkscape:cx="0.72367176"
     inkscape:cy="7.3566915"
     inkscape:window-x="0"
     inkscape:window-y="32"
     inkscape:window-maximized="1"
     inkscape:current-layer="svg6">
    <inkscape:grid
       type="xygrid"
       id="grid822" />
  </sodipodi:namedview>
  <path
     style="fill:#000000;fill-opacity:1;stroke:#000000;opacity:0.6;stroke-linejoin:round;stroke-width:2;stroke-miterlimit:4;stroke-dasharray:none"
     inkscape:connector-curvature="0"
     id="path840"
     d="m 15,3 3,4 3,-4 z" />
  <path
     inkscape:connector-curvature="0"
     id="path836"
     d="M 13,8 V 8.5 21 h 2 V 20.117188 C 15.743574,20.631674 16.579013,20.998565 17.5,21 19.979359,21 22,18.979359 22,16.5 22,14.020641 19.979359,12 17.5,12 16.579013,12.0014 15.743574,12.368327 15,12.882812 V 8 Z m 4.5,6 C 18.886634,14 20,15.113366 20,16.5 20,17.886634 18.886634,19 17.5,19 16.113366,19 15,17.886634 15,16.5 15,15.113366 16.113366,14 17.5,14 Z"
     style="color:#000000;font-style:normal;font-variant:normal;font-weight:normal;font-stretch:normal;font-size:medium;line-height:normal;font-family:sans-serif;font-variant-ligatures:normal;font-variant-position:normal;font-variant-caps:normal;font-variant-numeric:normal;font-variant-alternates:normal;font-feature-settings:normal;text-indent:0;text-align:start;text-decoration:none;text-decoration-line:none;text-decoration-style:solid;text-decoration-color:#000000;letter-spacing:normal;word-spacing:normal;text-transform:none;writing-mode:lr-tb;direction:ltr;text-orientation:mixed;dominant-baseline:auto;baseline-shift:baseline;text-anchor:start;white-space:normal;shape-padding:0;clip-rule:nonzero;display:inline;overflow:visible;visibility:visible;opacity:0.6;isolation:auto;mix-blend-mode:normal;color-interpolation:sRGB;color-interpolation-filters:linearRGB;solid-color:#000000;solid-opacity:1;vector-effect:none;fill:#000000;fill-opacity:1;fill-rule:nonzero;stroke:#000000;stroke-width:2;stroke-linecap:butt;stroke-linejoin:round;stroke-miterlimit:4;stroke-dasharray:none;stroke-dashoffset:0;stroke-opacity:1;color-rendering:auto;image-rendering:auto;shape-rendering:auto;text-rendering:auto;enable-background:accumulate" />
  <path
     inkscape:connector-curvature="0"
     id="path838"
     d="M 6.5,12 C 4.0206409,12 2,14.020641 2,16.5 2,18.979359 4.0206409,21 6.5,21 7.4209874,20.9986 8.2564263,20.631674 9,20.117188 V 21 h 2 V 16.5 12 H 9 v 0.882812 C 8.2564263,12.368327 7.4209874,12.001435 6.5,12 Z m 0,2 C 7.8866342,14 9,15.113366 9,16.5 9,17.886634 7.8866342,19 6.5,19 5.1133658,19 4,17.886634 4,16.5 4,15.113366 5.1133658,14 6.5,14 Z"
     style="color:#000000;font-style:normal;font-variant:normal;font-weight:normal;font-stretch:normal;font-size:medium;line-height:normal;font-family:sans-serif;font-variant-ligatures:normal;font-variant-position:normal;font-variant-caps:normal;font-variant-numeric:normal;font-variant-alternates:normal;font-feature-settings:normal;text-indent:0;text-align:start;text-decoration:none;text-decoration-line:none;text-decoration-style:solid;text-decoration-color:#000000;letter-spacing:normal;word-spacing:normal;text-transform:none;writing-mode:lr-tb;direction:ltr;text-orientation:mixed;dominant-baseline:auto;baseline-shift:baseline;text-anchor:start;white-space:normal;shape-padding:0;clip-rule:nonzero;display:inline;overflow:visible;visibility:visible;opacity:0.6;isolation:auto;mix-blend-mode:normal;color-interpolation:sRGB;color-interpolation-filters:linearRGB;solid-color:#000000;solid-opacity:1;vector-effect:none;fill:#000000;fill-opacity:1;fill-rule:nonzero;stroke:#000000;stroke-width:2;stroke-linecap:butt;stroke-linejoin:round;stroke-miterlimit:4;stroke-dasharray:none;stroke-dashoffset:0;stroke-opacity:1;color-rendering:auto;image-rendering:auto;shape-rendering:auto;text-rendering:auto;enable-background:accumulate" />
  <path
     style="color:#000000;font-style:normal;font-variant:normal;font-weight:normal;font-stretch:normal;font-size:medium;line-height:normal;font-family:sans-serif;font-variant-ligatures:normal;font-variant-position:normal;font-variant-caps:normal;font-variant-numeric:normal;font-variant-alternates:normal;font-feature-settings:normal;text-indent:0;text-align:start;text-decoration:none;text-decoration-line:none;text-decoration-style:solid;text-decoration-color:#000000;letter-spacing:normal;word-spacing:normal;text-transform:none;writing-mode:lr-tb;direction:ltr;text-orientation:mixed;dominant-baseline:auto;baseline-shift:baseline;text-anchor:start;white-space:normal;shape-padding:0;clip-rule:nonzero;display:inline;overflow:visible;visibility:visible;opacity:1;isolation:auto;mix-blend-mode:normal;color-interpolation:sRGB;color-interpolation-filters:linearRGB;solid-color:#000000;solid-opacity:1;vector-effect:none;fill:#ffffff;fill-opacity:1;fill-rule:nonzero;stroke:none;stroke-width:1;stroke-linecap:butt;stroke-linejoin:miter;stroke-miterlimit:4;stroke-dasharray:none;stroke-dashoffset:0;stroke-opacity:1;color-rendering:auto;image-rendering:auto;shape-rendering:auto;text-rendering:auto;enable-background:accumulate"
     d="M 13,8 V 8.5 21 h 2 V 20.117188 C 15.743574,20.631674 16.579013,20.998565 17.5,21 19.979359,21 22,18.979359 22,16.5 22,14.020641 19.979359,12 17.5,12 16.579013,12.0014 15.743574,12.368327 15,12.882812 V 8 Z m 4.5,6 C 18.886634,14 20,15.113366 20,16.5 20,17.886634 18.886634,19 17.5,19 16.113366,19 15,17.886634 15,16.5 15,15.113366 16.113366,14 17.5,14 Z"
     id="path832"
     inkscape:connector-curvature="0" />
  <path
     style="color:#000000;font-style:normal;font-variant:normal;font-weight:normal;font-stretch:normal;font-size:medium;line-height:normal;font-family:sans-serif;font-variant-ligatures:normal;font-variant-position:normal;font-variant-caps:normal;font-variant-numeric:normal;font-variant-alternates:normal;font-feature-settings:normal;text-indent:0;text-align:start;text-decoration:none;text-decoration-line:none;text-decoration-style:solid;text-decoration-color:#000000;letter-spacing:normal;word-spacing:normal;text-transform:none;writing-mode:lr-tb;direction:ltr;text-orientation:mixed;dominant-baseline:auto;baseline-shift:baseline;text-anchor:start;white-space:normal;shape-padding:0;clip-rule:nonzero;display:inline;overflow:visible;visibility:visible;opacity:1;isolation:auto;mix-blend-mode:normal;color-interpolation:sRGB;color-interpolation-filters:linearRGB;solid-color:#000000;solid-opacity:1;vector-effect:none;fill:#ffffff;fill-opacity:1;fill-rule:nonzero;stroke:none;stroke-width:1;stroke-linecap:butt;stroke-linejoin:miter;stroke-miterlimit:4;stroke-dasharray:none;stroke-dashoffset:0;stroke-opacity:1;color-rendering:auto;image-rendering:auto;shape-rendering:auto;text-rendering:auto;enable-background:accumulate"
     d="M 6.5,12 C 4.0206409,12 2,14.020641 2,16.5 2,18.979359 4.0206409,21 6.5,21 7.4209874,20.9986 8.2564263,20.631674 9,20.117188 V 21 h 2 V 16.5 12 H 9 v 0.882812 C 8.2564263,12.368327 7.4209874,12.001435 6.5,12 Z m 0,2 C 7.8866342,14 9,15.113366 9,16.5 9,17.886634 7.8866342,19 6.5,19 5.1133658,19 4,17.886634 4,16.5 4,15.113366 5.1133658,14 6.5,14 Z"
     id="path830"
     inkscape:connector-curvature="0" />
  <path
     d="m 15,3 3,4 3,-4 z"
     id="path4"
     inkscape:connector-curvature="0"
     style="fill:#aee3f8;fill-opacity:1" />
</svg>

<svg xmlns="http://www.w3.org/2000/svg" viewBox="0 0 24 24"><path d="M15 3l3 4 3-4z" stroke="#000" opacity=".6" stroke-linejoin="round" stroke-width="2"/><path d="M13 8v13h2v-.883c.744.515 1.579.882 2.5.883 2.48 0 4.5-2.02 4.5-4.5S19.98 12 17.5 12c-.921.001-1.756.368-2.5.883V8zm4.5 6c1.387 0 2.5 1.113 2.5 2.5S18.887 19 17.5 19a2.492 2.492 0 01-2.5-2.5c0-1.387 1.113-2.5 2.5-2.5zM6.5 12C4.02 12 2 14.02 2 16.5S4.02 21 6.5 21c.921-.001 1.756-.368 2.5-.883V21h2v-9H9v.883C8.256 12.368 7.421 12 6.5 12zm0 2C7.887 14 9 15.113 9 16.5S7.887 19 6.5 19A2.492 2.492 0 014 16.5C4 15.113 5.113 14 6.5 14z" style="line-height:normal;font-variant-ligatures:normal;font-variant-position:normal;font-variant-caps:normal;font-variant-numeric:normal;font-variant-alternates:normal;font-feature-settings:normal;text-indent:0;text-align:start;text-decoration-line:none;text-decoration-style:solid;text-decoration-color:#000;text-transform:none;text-orientation:mixed;white-space:normal;shape-padding:0;isolation:auto;mix-blend-mode:normal;solid-color:#000;solid-opacity:1" color="#000" font-weight="400" font-family="sans-serif" overflow="visible" opacity=".6" stroke="#000" stroke-width="2" stroke-linejoin="round"/><path style="line-height:normal;font-variant-ligatures:normal;font-variant-position:normal;font-variant-caps:normal;font-variant-numeric:normal;font-variant-alternates:normal;font-feature-settings:normal;text-indent:0;text-align:start;text-decoration-line:none;text-decoration-style:solid;text-decoration-color:#000;text-transform:none;text-orientation:mixed;white-space:normal;shape-padding:0;isolation:auto;mix-blend-mode:normal;solid-color:#000;solid-opacity:1" d="M13 8v13h2v-.883c.744.515 1.579.882 2.5.883 2.48 0 4.5-2.02 4.5-4.5S19.98 12 17.5 12c-.921.001-1.756.368-2.5.883V8zm4.5 6c1.387 0 2.5 1.113 2.5 2.5S18.887 19 17.5 19a2.492 2.492 0 01-2.5-2.5c0-1.387 1.113-2.5 2.5-2.5zM6.5 12C4.02 12 2 14.02 2 16.5S4.02 21 6.5 21c.921-.001 1.756-.368 2.5-.883V21h2v-9H9v.883C8.256 12.368 7.421 12 6.5 12zm0 2C7.887 14 9 15.113 9 16.5S7.887 19 6.5 19A2.492 2.492 0 014 16.5C4 15.113 5.113 14 6.5 14z" color="#000" font-weight="400" font-family="sans-serif" overflow="visible" fill="#fff"/><path d="M15 3l3 4 3-4z" fill="#aee3f8"/></svg>
